X:4
T:Oh Callar Spirlings (variation 3)
C:Domenico Corri
S:Jack Campin <abc:purr.demon.co.uk> abcusers 2004-12-6
V:1
V:2
M:3/4
L:1/16
Q:1/4=112
K:D Minor
[V:1] "^P."a2|d'a3```````````d'a3  d'/^c'/d'/c'/d'/c'/=b/c'/|d'a3```d'a3   c'/=b/c'/b/c'/b/a/b/|
[V:2]      z2|f2``````````d2`f2d2``g2```````````e2          |f2`d2``f2d2```g2`````````f2       |
%
[V:1]         c'g3```````````c'g3  c'/=b/c'/b/``c'/b/a/b/   |c'g3```c'g3   e'^c'`````=ba       |
[V:2]         e2``````````c2`e2c2``f2```````````d2          |e2`c2``e2`c2``e2````````^c2       |
%
[V:1]         d'a3```````````d'a3  d'/^c'/d'/c'/d'/c'/=b/c'/|d'2a2`(f'2d'2`a2)````````f2       |
[V:2]         f2``````````d2`f2d2``g2```````````e2          |f2`d2  f4     z4                  |
%
[V:1] "^F."   a/b//a//g/a/bg f2d2``e2^c2                    |d8            D2                 ||
[V:2]         G2``````````B2 A4    A,4                      |D2`A,2`F,2A,2 D,2                ||
